src/data/icons/bet.svg

<?xml version="1.0" encoding="UTF-8"?>
<svg width="31px" height="25px" viewBox="0 0 31 25" version="1.1" xmlns="http://www.w3.org/2000/svg" xmlns:xlink="http://www.w3.org/1999/xlink">
    <title>Group 13</title>
    <g id="💣-05-Create-bet" stroke="none" stroke-width="1" fill="none" fill-rule="evenodd">
        <g id="wallfair-create-bet-06" transform="translate(-120.000000, -918.000000)" fill="#0E0927" fill-rule="nonzero">
            <g id="Group" transform="translate(0.000000, 899.000000)">
                <g id="Group-11" transform="translate(120.102750, 12.000000)">
                    <g id="Group-10" transform="translate(15.397250, 19.500000) rotate(-14.000000) translate(-15.397250, -19.500000) translate(1.897250, 10.000000)">
                        <ellipse id="Oval" cx="13.5" cy="12.9027273" rx="1" ry="1"></ellipse>
                        <ellipse id="Oval" cx="13.5" cy="9.55181818" rx="1" ry="1"></ellipse>
                        <ellipse id="Oval" cx="13.5" cy="6.09727273" rx="1" ry="1"></ellipse>
                        <path d="M24.804,19 L2.196,19 C0.983182689,19 0,18.0565419 0,16.8927273 L0,13.5590909 C0.00832334104,12.8253826 0.567608178,12.2047236 1.323,12.0909091 C2.64703884,11.8894691 3.61653789,10.7863141 3.6,9.5 C3.61587291,8.21087857 2.64162109,7.10668001 1.314,6.90909091 C0.560246489,6.7948154 0.00388357147,6.1731701 0,5.44090909 L0,2.10727273 C0,0.943458136 0.983182689,0 2.196,0 L24.804,0 C26.0168173,0 27,0.943458136 27,2.10727273 L27,5.44090909 C26.9954147,6.1759704 26.4343266,6.79863046 25.677,6.90909091 C24.3529612,7.1105309 23.3834621,8.21368588 23.4,9.5 C23.3841271,10.7891214 24.3583789,11.89332 25.686,12.0909091 C26.4378206,12.2084993 26.9924099,12.8281628 27,13.5590909 L27,16.8927273 C27,18.0565419 26.0168173,19 24.804,19 Z M1.8,13.7490909 L1.8,16.9013636 C1.8,17.1112318 1.97729524,17.2813636 2.196,17.2813636 L24.804,17.2813636 C25.0227048,17.2813636 25.2,17.1112318 25.2,16.9013636 L25.2,13.7490909 C23.0701871,13.3673557 21.526225,11.5834228 21.526225,9.50431818 C21.526225,7.42521353 23.0701871,5.64128062 25.2,5.25954545 L25.2,2.10727273 C25.2,1.89740452 25.0227048,1.72727273 24.804,1.72727273 L2.196,1.72727273 C1.97729524,1.72727273 1.8,1.89740452 1.8,2.10727273 L1.8,5.25954545 C3.92981292,5.64128062 5.473775,7.42521353 5.473775,9.50431818 C5.473775,11.5834228 3.92981292,13.3673557 1.8,13.7490909 Z" id="Shape"></path>
                    </g>
                </g>
            </g>
        </g>
    </g>
</svg>

<svg width="31" height="25" xmlns="http://www.w3.org/2000/svg"><g transform="rotate(-14 26.717 2.856)" fill="#0E0927" fill-rule="nonzero"><circle cx="13.5" cy="12.903" r="1"/><circle cx="13.5" cy="9.552" r="1"/><circle cx="13.5" cy="6.097" r="1"/><path d="M24.804 19H2.196C.983 19 0 18.057 0 16.893v-3.334c.008-.734.568-1.354 1.323-1.468C2.647 11.889 3.617 10.786 3.6 9.5c.016-1.29-.958-2.393-2.286-2.59C.56 6.794.004 6.172 0 5.44V2.108C0 .943.983 0 2.196 0h22.608C26.017 0 27 .943 27 2.107v3.334c-.005.735-.566 1.358-1.323 1.468-1.324.202-2.294 1.305-2.277 2.591-.016 1.29.958 2.393 2.286 2.59.752.118 1.306.738 1.314 1.47v3.333C27 18.057 26.017 19 24.804 19zM1.8 13.75V16.9c0 .21.177.38.396.38h22.608c.219 0 .396-.17.396-.38V13.75c-2.13-.382-3.674-2.166-3.674-4.245S23.07 5.641 25.2 5.26V2.107c0-.21-.177-.38-.396-.38H2.196a.388.388 0 00-.396.38V5.26c2.13.381 3.674 2.165 3.674 4.244 0 2.08-1.544 3.863-3.674 4.245z"/></g></svg>
